dist/img/svg/youtube.svg

<svg width="19" height="18" viewBox="0 0 19 18" fill="none" xmlns="http://www.w3.org/2000/svg">
<path d="M7.77129 11.7L12.4423 8.99995L7.77129 6.29995V11.7ZM18.1753 4.65295C18.2923 5.07595 18.3733 5.64295 18.4273 6.36295C18.4903 7.08295 18.5173 7.70395 18.5173 8.24395L18.5713 8.99995C18.5713 10.971 18.4273 12.42 18.1753 13.347C17.9503 14.157 17.4283 14.679 16.6183 14.904C16.1953 15.021 15.4213 15.102 14.2333 15.156C13.0633 15.219 11.9923 15.246 11.0023 15.246L9.57129 15.3C5.80029 15.3 3.45129 15.156 2.52429 14.904C1.71429 14.679 1.19229 14.157 0.967289 13.347C0.850289 12.924 0.769289 12.357 0.715289 11.637C0.652289 10.917 0.625289 10.296 0.625289 9.75595L0.571289 8.99995C0.571289 7.02895 0.715289 5.57995 0.967289 4.65295C1.19229 3.84295 1.71429 3.32095 2.52429 3.09595C2.94729 2.97895 3.72129 2.89795 4.90929 2.84395C6.07929 2.78095 7.15029 2.75395 8.14029 2.75395L9.57129 2.69995C13.3423 2.69995 15.6913 2.84395 16.6183 3.09595C17.4283 3.32095 17.9503 3.84295 18.1753 4.65295Z" fill="currentColor"/>
</svg>

<svg width="19" height="18" viewBox="0 0 19 18" fill="none" xmlns="http://www.w3.org/2000/svg"><path d="M7.771 11.7L12.442 9l-4.67-2.7v5.4zm10.404-7.047c.117.423.198.99.252 1.71.063.72.09 1.34.09 1.88l.054.757c0 1.971-.144 3.42-.396 4.347-.225.81-.747 1.332-1.557 1.557-.423.117-1.197.198-2.385.252-1.17.063-2.24.09-3.23.09L9.57 15.3c-3.77 0-6.12-.144-7.047-.396-.81-.225-1.332-.747-1.557-1.557-.117-.423-.198-.99-.252-1.71-.063-.72-.09-1.341-.09-1.881L.571 9c0-1.971.144-3.42.396-4.347.225-.81.747-1.332 1.557-1.557.423-.117 1.197-.198 2.385-.252 1.17-.063 2.241-.09 3.231-.09L9.571 2.7c3.771 0 6.12.144 7.047.396.81.225 1.332.747 1.557 1.557z" fill="currentColor"/></svg>
